assets/icons/Node.js.svg

<svg width="32" height="32" viewBox="0 0 32 32" fill="none" xmlns="http://www.w3.org/2000/svg">
<path d="M26.5943 8.76103L17.1125 3.25544C16.5146 2.91485 15.736 2.91485 15.1333 3.25544L5.55027 8.76103C4.93317 9.11603 4.49646 9.78324 4.49646 10.4969V21.4934C4.49646 22.2071 4.94456 22.8745 5.56167 23.2314L8.09353 24.6695C9.30366 25.2655 9.73134 25.2655 10.282 25.2655C12.0738 25.2655 13.0973 24.182 13.0973 22.2922V11.4359C13.0973 11.2826 13.0175 11.0544 12.867 11.0544H11.6579C11.5048 11.0544 11.1621 11.2826 11.1621 11.4357V22.292C11.1621 23.1297 10.4043 23.9634 8.98823 23.2553L6.37208 21.7474C6.28091 21.6979 6.21662 21.5984 6.21662 21.4934V10.4969C6.21662 10.3932 6.33596 10.2892 6.42777 10.2361L15.9798 4.73994C16.069 4.68941 16.2002 4.68941 16.2892 4.73994L25.7247 10.2348C25.815 10.2892 25.7832 10.39 25.7832 10.4969V21.4934C25.7832 21.5984 25.8226 21.7005 25.7333 21.751L16.254 27.2504C16.1727 27.2992 16.0718 27.2992 15.9828 27.2504L13.5516 25.7992C13.4783 25.7566 13.3912 25.7414 13.3209 25.7807C12.6444 26.1641 12.5197 26.2151 11.8852 26.435C11.7291 26.4894 11.4988 26.5838 11.9733 26.8498L15.1552 28.7321C15.459 28.9075 15.8036 28.9999 16.1544 29C16.5075 29 16.8532 28.9084 17.1579 28.7321L26.5941 23.2314C27.2112 22.8719 27.5036 22.2071 27.5036 21.4934V10.4969C27.5036 9.78324 27.2112 9.11775 26.5943 8.76103ZM19.0985 19.7509C16.5771 19.7509 16.0217 19.0553 15.8366 17.8015C15.8151 17.6665 15.7005 17.505 15.5631 17.505H14.3308C14.1784 17.505 14.0558 17.6899 14.0558 17.8418C14.0558 19.4471 14.9286 21.3922 19.0987 21.3922C22.1173 21.3922 23.848 20.2192 23.848 18.1434C23.848 16.0853 22.4575 15.5451 19.53 15.1577C16.5709 14.7665 16.2703 14.5689 16.2703 13.8757C16.2703 13.3042 16.5249 12.5419 18.7159 12.5419C20.6737 12.5419 21.3953 12.9621 21.6923 14.2817C21.7176 14.4057 21.8309 14.4948 21.9589 14.4948H23.1961C23.2722 14.4948 23.3449 14.464 23.3982 14.4096C23.4498 14.3511 23.4771 14.2778 23.4703 14.1991C23.2787 11.9268 21.769 10.8678 18.7157 10.8678C15.9998 10.8678 14.3796 12.0147 14.3796 13.9372C14.3796 16.0225 15.9916 16.5987 18.5988 16.8565C21.7176 17.1623 21.9602 17.6181 21.9602 18.2316C21.9602 19.297 21.1048 19.7509 19.0985 19.7509Z" fill="#82BC4F"/>
</svg>

<svg xmlns="http://www.w3.org/2000/svg" width="32" height="32" fill="none"><path fill="#82BC4F" d="m26.594 8.761-9.481-5.506a2.05 2.05 0 0 0-1.98 0L5.55 8.761c-.617.355-1.054 1.022-1.054 1.736v10.996c0 .714.449 1.382 1.066 1.738l2.532 1.438c1.21.596 1.637.596 2.188.596 1.792 0 2.815-1.083 2.815-2.973V11.436c0-.153-.08-.382-.23-.382h-1.21c-.152 0-.495.229-.495.382v10.856c0 .838-.758 1.671-2.174.963l-2.616-1.508a.3.3 0 0 1-.155-.254V10.497c0-.104.119-.208.21-.26L15.98 4.74c.089-.05.22-.05.31 0l9.435 5.495c.09.054.058.155.058.262v10.996c0 .105.04.208-.05.258l-9.479 5.5a.27.27 0 0 1-.271 0l-2.431-1.452c-.074-.042-.16-.058-.231-.018-.677.383-.801.434-1.436.654-.156.054-.386.149.088.415l3.182 1.882a2 2 0 0 0 2.003 0l9.436-5.5c.617-.36.91-1.025.91-1.739V10.497c0-.714-.293-1.38-.91-1.736M19.1 19.751c-2.522 0-3.077-.696-3.262-1.95-.022-.134-.136-.296-.274-.296h-1.232c-.153 0-.275.185-.275.337 0 1.605.873 3.55 5.043 3.55 3.018 0 4.749-1.173 4.749-3.249 0-2.058-1.39-2.598-4.318-2.985-2.96-.391-3.26-.59-3.26-1.282 0-.572.255-1.334 2.446-1.334 1.958 0 2.68.42 2.976 1.74a.27.27 0 0 0 .267.213h1.237c.076 0 .149-.031.202-.085a.28.28 0 0 0 .072-.21c-.191-2.273-1.701-3.332-4.754-3.332-2.716 0-4.336 1.147-4.336 3.07 0 2.085 1.612 2.66 4.219 2.919 3.119.305 3.361.761 3.361 1.375 0 1.065-.855 1.519-2.861 1.519"/></svg>
